!!!OTL: 9a. Die verwandelte Blume.
!!!ODT: 1842
!!!ARE: Europa, Mitteleuropa, Deutschland, Giessen
!!!SCT: E0009
!!!TXL: @@DE
!!!YEM: Copyright 1995, estate of Helmut Schaffrath.
**kern	**text
*ICvox	*
*M6/8	*
*k[f#]	*
*G:	*
!LO:TX:a:t=Mäßig und innig.	!
!LO:TX:a:t=Melodie aus der Gegend von Gießen. 1842.	!
{8d	Da
=1	=1
8g	drunten
8g	.
8a	im
8b	Gar-
8b	-ten
8a	da
=2	=2
4.g	iſt
4r}	.
{8a	ein
=3	=3
4a	ſchö-
8b	-nes
9ddqq	.
4cc	Pa-
8b	-ra-
=4	=4
4.a	-dies;
4r}	.
{8g	das
=5	=5
8b	iſt
8b	ſo
8b	ſchön
16ddL	an-
16ccJ	.
16ccL	-ʒu-
16bJ	.
8a	-ſehn,
=6	=6
8a	daß
8a	man
8dd	möcht
16bL	drin-
16aJ	.
16bL	-ne
16aJ	.
8g}	gehn,
=7	=7
{8g	daß
8g	man
8a	möcht
8b	drin-
8b	-ne,
16ddL	ja
16ccJ	.
=8	=8
4b/	drin-
8a	-ne
4g}	gehn.
==	==
!!!AGN: Sage, Maerchen -, Zauber - Lied, Ballade ?
!!!ONB: ESAC (Essen Associative Code) Database: ERK1
!!!AMT: compound duple
!!!AIN: vox
!!!EED: Helmut Schaffrath
!!!EEV: 1.0
!!!GTL: Nachtklaenge der Goettersage (Zaubermaeren)
!!!URL-scan: https://rosdok.uni-rostock.de/mcrviewer/recordIdentifier/rosdok_ppn745146120/iview2/phys_0091.iview2?x=-4.404412318552431&y=1586.234929019527&scale=0.645690413860662&rotation=0&layout=singlePageLayout&logicalDiv=log_0009
!!!ENC: Anna Maria Matuszewska
!!!EEV: 2024/22/11
*-	*-
